X:634
T:The Dingle regatta
R:Jig
O:Ireland
S:My arrangement from various sources
Z:Transcription, arrangement, chords:Mike Long
M:6/8
L:1/8
K:G
Bc|:\
"G"d^cd e2d|BAB d2B|"D"A2A AGA|"G"B2A GBc|\
d^cd e2d|BAB d2B|"D"A2A ABA|"G"G3 G3:|
|:"G"d2d def|g2g gfg|"D"a2a aga|"G"b2a gfe|\
d2d def|g2g gfg|"D"a2g f2e|"D"def "G"g3:|
|:"G"g3 "D"d3|"G"BdB G3|"D"ABA DEF|"G"G2B def|\
"G"g3 "D"d3|"G"BdB G2B|"D"ABA DEF|"G"G3 G3:|
